svg/SJJB-OpenStreetMapIcons/accommodation/shelter2.svg

<?xml version="1.0" encoding="UTF-8" standalone="no"?>
<!-- Created with Inkscape (http://www.inkscape.org/) -->
<svg
   xmlns:dc="http://purl.org/dc/elements/1.1/"
   xmlns:cc="http://creativecommons.org/ns#"
   xmlns:rdf="http://www.w3.org/1999/02/22-rdf-syntax-ns#"
   xmlns:svg="http://www.w3.org/2000/svg"
   xmlns="http://www.w3.org/2000/svg"
   xmlns:sodipodi="http://sodipodi.sourceforge.net/DTD/sodipodi-0.dtd"
   xmlns:inkscape="http://www.inkscape.org/namespaces/inkscape"
   version="1.0"
   width="580"
   height="580"
   id="svg2"
   sodipodi:version="0.32"
   inkscape:version="0.46"
   sodipodi:docname="accommodation_shelter2.svg"
   sodipodi:docbase="s:\Data\FacilityIcons"
   inkscape:output_extension="org.inkscape.output.svg.inkscape">
  <metadata
     id="metadata2975">
    <rdf:RDF>
      <cc:Work
         rdf:about="">
        <dc:format>image/svg+xml</dc:format>
        <dc:type
           rdf:resource="http://purl.org/dc/dcmitype/StillImage" />
        <cc:license
           rdf:resource="http://web.resource.org/cc/PublicDomain" />
        <dc:language>en</dc:language>
      </cc:Work>
    </rdf:RDF>
  </metadata>
  <sodipodi:namedview
     inkscape:window-height="947"
     inkscape:window-width="1048"
     inkscape:pageshadow="2"
     inkscape:pageopacity="0.0"
     guidetolerance="10.0"
     gridtolerance="10.0"
     objecttolerance="10.0"
     borderopacity="1.0"
     bordercolor="#666666"
     pagecolor="#ffffff"
     id="base"
     inkscape:zoom="0.92167712"
     inkscape:cx="264.08315"
     inkscape:cy="281.19503"
     inkscape:window-x="91"
     inkscape:window-y="25"
     inkscape:current-layer="svg2"
     showgrid="false" />
  <defs
     id="defs4">
    <inkscape:perspective
       sodipodi:type="inkscape:persp3d"
       inkscape:vp_x="0 : 290 : 1"
       inkscape:vp_y="0 : 1000 : 0"
       inkscape:vp_z="580 : 290 : 1"
       inkscape:persp3d-origin="290 : 193.33333 : 1"
       id="perspective2441" />
    <inkscape:perspective
       id="perspective3452"
       inkscape:persp3d-origin="30 : 20 : 1"
       inkscape:vp_z="60 : 30 : 1"
       inkscape:vp_y="0 : 1000 : 0"
       inkscape:vp_x="0 : 30 : 1"
       sodipodi:type="inkscape:persp3d" />
    <symbol
       viewBox="244.5 110 489 219.9"
       id="symbol-university">
      <path
         id="path4460"
         d="M79,43l57,119c0,0,21-96,104-96s124,106,124,106l43-133l82-17L0,17L79,43z" />
      <path
         id="path4462"
         d="M94,176l-21,39"
         stroke-width="20"
         stroke="#000000"
         fill="none" />
      <path
         id="path4464"
         d="M300,19c0,10.5-22.6,19-50.5,19S199,29.5,199,19s22.6-19,50.5-19S300,8.5,300,19z" />
      <path
         id="path4466"
         d="M112,216l-16-38L64,88c0,0-9-8-4-35s16-24,16-24"
         stroke-width="20"
         stroke="#000000"
         ill="none" />
    </symbol>
    <inkscape:perspective
       id="perspective4471"
       inkscape:persp3d-origin="372.04724 : 350.78739 : 1"
       inkscape:vp_z="744.09448 : 526.18109 : 1"
       inkscape:vp_y="0 : 1000 : 0"
       inkscape:vp_x="0 : 526.18109 : 1"
       sodipodi:type="inkscape:persp3d" />
    <inkscape:perspective
       id="perspective4668"
       inkscape:persp3d-origin="6 : 4 : 1"
       inkscape:vp_z="12 : 6 : 1"
       inkscape:vp_y="0 : 1000 : 0"
       inkscape:vp_x="0 : 6 : 1"
       sodipodi:type="inkscape:persp3d" />
  </defs>
  <g
     id="g1327">
    <path
       d="M 66.275,1.768 C 24.94,1.768 1.704,23.139 1.704,66.804 L 1.704,516.927 C 1.704,557.771 22.599,579.156 63.896,579.156 L 515.92,579.156 C 557.227,579.156 578.149,558.841 578.149,516.927 L 578.149,66.804 C 578.149,24.203 557.227,1.768 514.628,1.768 C 514.624,1.768 66.133,1.625 66.275,1.768 z"
       style="fill:#111111;stroke:#eeeeee;stroke-width:3.40799999"
       id="path1329" />
  </g>
  <g
     id="layer3"
     inkscape:label="Layout"
     style="display:none;stroke:#757575;stroke-opacity:1"
     transform="matrix(48.14969,0,0,48.14969,-536.27327,-33.306752)">
    <rect
       style="fill:none;stroke:#757575;stroke-width:0.10000000000000001;stroke-miterlimit:4;stroke-dasharray:none;stroke-opacity:1;display:inline"
       id="rect4134"
       width="10"
       height="10"
       x="1"
       y="1" />
    <rect
       style="fill:none;stroke:#757575;stroke-width:0.10000000000000001;stroke-miterlimit:4;stroke-dasharray:none;stroke-opacity:1;display:inline"
       id="rect4136"
       width="8"
       height="8"
       x="2"
       y="2" />
  </g>
  <path
     sodipodi:nodetypes="cc"
     id="path15803"
     d="M 134.69281,73.992992 L 55.840019,152.84578"
     style="fill:none;fill-rule:evenodd;stroke:#ffffff;stroke-width:19.20086479;stroke-linecap:round;stroke-linejoin:miter;stroke-miterlimit:4;stroke-dasharray:none;stroke-opacity:1;display:inline" />
  <path
     sodipodi:nodetypes="cc"
     id="path15805"
     d="M 241.42628,44.008171 L 162.5735,122.86096"
     style="fill:none;fill-rule:evenodd;stroke:#ffffff;stroke-width:19.20086479;stroke-linecap:round;stroke-linejoin:miter;stroke-miterlimit:4;stroke-dasharray:none;stroke-opacity:1;display:inline" />
  <path
     sodipodi:nodetypes="cc"
     id="path15807"
     d="M 114.62614,184.10203 L 52.744667,245.98349"
     style="fill:none;fill-rule:evenodd;stroke:#ffffff;stroke-width:19.20086479;stroke-linecap:round;stroke-linejoin:miter;stroke-miterlimit:4;stroke-dasharray:none;stroke-opacity:1;display:inline" />
  <path
     sodipodi:nodetypes="cc"
     id="path15809"
     d="M 275.86078,105.04094 L 197.008,183.89373"
     style="fill:none;fill-rule:evenodd;stroke:#ffffff;stroke-width:19.20086479;stroke-linecap:round;stroke-linejoin:miter;stroke-miterlimit:4;stroke-dasharray:none;stroke-opacity:1;display:inline" />
  <path
     sodipodi:nodetypes="cc"
     id="path15813"
     d="M 456.75653,87.944376 L 377.90375,166.79717"
     style="fill:none;fill-rule:evenodd;stroke:#ffffff;stroke-width:19.20086479;stroke-linecap:round;stroke-linejoin:miter;stroke-miterlimit:4;stroke-dasharray:none;stroke-opacity:1;display:inline" />
  <path
     sodipodi:nodetypes="cc"
     id="path15815"
     d="M 546.20521,80.62071 L 487.85946,136.84506"
     style="fill:none;fill-rule:evenodd;stroke:#ffffff;stroke-width:19.20086479;stroke-linecap:round;stroke-linejoin:miter;stroke-miterlimit:4;stroke-dasharray:none;stroke-opacity:1;display:inline" />
  <path
     sodipodi:nodetypes="cc"
     id="path15819"
     d="M 548.32665,157.79575 L 487.85944,216.84866"
     style="fill:none;fill-rule:evenodd;stroke:#ffffff;stroke-width:19.20086479;stroke-linecap:round;stroke-linejoin:miter;stroke-miterlimit:4;stroke-dasharray:none;stroke-opacity:1;display:inline" />
  <path
     sodipodi:nodetypes="cc"
     id="path15821"
     d="M 446.74834,185.50249 L 419.51667,210.61275"
     style="fill:none;fill-rule:evenodd;stroke:#ffffff;stroke-width:19.20086479;stroke-linecap:round;stroke-linejoin:miter;stroke-miterlimit:4;stroke-dasharray:none;stroke-opacity:1;display:inline" />
  <path
     sodipodi:nodetypes="cc"
     id="path15823"
     d="M 353.96491,119.46757 L 314.71189,157.30632"
     style="fill:none;fill-rule:evenodd;stroke:#ffffff;stroke-width:19.20086479;stroke-linecap:round;stroke-linejoin:miter;stroke-miterlimit:4;stroke-dasharray:none;stroke-opacity:1;display:inline" />
  <path
     sodipodi:nodetypes="cc"
     id="path15825"
     d="M 370.55596,33.1566 L 324.23155,80.89529"
     style="fill:none;fill-rule:evenodd;stroke:#ffffff;stroke-width:19.20086479;stroke-linecap:round;stroke-linejoin:miter;stroke-miterlimit:4;stroke-dasharray:none;stroke-opacity:1;display:inline" />
  <g
     id="g5417"
     transform="matrix(0.8724801,0,0,0.8724801,43.27383,78.888966)">
    <path
       style="fill:#ffffff;fill-opacity:1;fill-rule:evenodd;stroke:#ffffff;stroke-width:21.45868111;stroke-linecap:round;stroke-linejoin:round;marker-mid:none;stroke-miterlimit:4;stroke-dasharray:none;stroke-opacity:1;display:inline"
       d="M 48.288912,272.40193 L 288.29972,144.39616 L 528.31052,272.40193 L 512.24025,288.7664 L 431.99984,256.40121 L 288.21392,239.09639 L 144.09958,256.1512 L 64.279091,288.40647 L 48.288912,272.40193 z"
       id="path7057"
       sodipodi:nodetypes="ccccccccc" />
    <rect
       style="fill:#ffffff;fill-opacity:1;stroke:#ffffff;stroke-width:22.63140297;stroke-linecap:round;stroke-linejoin:round;stroke-miterlimit:4;stroke-dasharray:none;stroke-opacity:1;display:inline"
       id="rect7061"
       width="30.82872"
       height="258.64166"
       x="414.99585"
       y="255.09157"
       ry="0" />
    <rect
       ry="0"
       y="255.09157"
       x="128.99585"
       height="258.64166"
       width="30.82872"
       id="rect2747"
       style="fill:#ffffff;fill-opacity:1;stroke:#ffffff;stroke-width:22.63140297;stroke-linecap:round;stroke-linejoin:round;stroke-miterlimit:4;stroke-dasharray:none;stroke-opacity:1;display:inline" />
  </g>
</svg>

<svg xmlns="http://www.w3.org/2000/svg" viewBox="0 0 580 580"><path d="m66.28 1.768c-41.34 0-64.57 21.371-64.57 65.04v450.12c0 40.844 20.895 62.23 62.19 62.23h452.02c41.31 0 62.23-20.315 62.23-62.23v-450.12c0-42.601-20.922-65.04-63.52-65.04-.004 0-448.5-.143-448.35 0z" fill="#111" stroke="#eee" stroke-width="3.408"/><g stroke="#fff" stroke-linecap="round"><g fill="none" fill-rule="evenodd" stroke-width="19.2"><path d="m134.69 73.993l-78.85 78.85"/><path d="m241.43 44.01l-78.85 78.85"/><path d="m114.63 184.1l-61.881 61.881"/><path d="m275.86 105.04l-78.85 78.85"/><path d="m456.76 87.94l-78.85 78.85"/><path d="m546.21 80.62l-58.35 56.22"/><path d="m548.33 157.8l-60.47 59.05"/><path d="m446.75 185.5l-27.23 25.11"/><path d="m353.96 119.47l-39.25 37.839"/><path d="m370.56 33.16l-46.32 47.739"/></g><g transform="matrix(.87248 0 0 .87248 43.27 78.889)" fill="#fff" stroke-linejoin="round"><path d="m48.29 272.4l240.01-128.01 240.01 128.01-16.07 16.364-80.24-32.365-143.79-17.305-144.11 17.05-79.82 32.26-15.99-16z" fill-rule="evenodd" stroke-width="21.459"/><g stroke-width="22.631"><path d="m415 255.09h30.829v258.64h-30.829z"/><path d="m129 255.09h30.829v258.64h-30.829z"/></g></g></g></svg>
